logos/openfl.svg

<?xml version="1.0" encoding="UTF-8"?>
<svg version="1.1" viewBox="0 0 75 75" xmlns="http://www.w3.org/2000/svg">
<g stroke="#fff">
<path d="m41.595 3.2727c16.997 2.1414 30.144 16.649 30.144 34.227s-13.146 32.086-30.144 34.227" fill="none" stroke-width="5.9185"/>
<path d="m32.884 71.727c-16.997-2.1414-30.144-16.649-30.144-34.227s13.146-32.086 30.144-34.227" fill="none" stroke-width="5.9185"/>
<path d="m39.941 21.106-17.603-0.0933v31.594h6.6744l0.0267-13.223h10.49l-0.0275-4.4387h-10.49v-8.7003h11.582l-0.6531-5.1386z" fill="#fff" stroke-width=".8602"/>
<path d="m49.345 20.829h-6.1325v25.721c0 3.8082 0.4181 6.056 6.0112 6.056h5.1993l0.7917-4.4413h-5.2116c-0.8652-0.1014-0.6206-0.8872-0.6581-1.8736v-25.462z" fill="#fff" stroke-width=".8602"/>
</g>
</svg>

<?xml version="1.0" encoding="utf-8"?>
<!-- Created by sK1 2.0rc5 (https://sk1project.net/) -->
<svg xmlns="http://www.w3.org/2000/svg" height="75.0px" width="75.0px" version="1.1" xmlns:xlink="http://www.w3.org/1999/xlink" id="79842cc0-e0b1-11ea-a561-94e6f720df95">

<g>
	<path style="stroke:#ffffff;stroke-width:5.9185;stroke-miterlimit:4.0;fill:none;" d="M 41.5954,3.2727 C 58.5927,5.4141 71.7392,19.9218 71.7392,37.5 L 71.7392,37.5 71.7392,37.5 C 71.7392,55.0782 58.5927,69.5859 41.5954,71.7273" />
	<path style="stroke:#ffffff;stroke-width:5.9185;stroke-miterlimit:4.0;fill:none;" d="M 32.8836,71.7273 C 15.8863,69.5859 2.7398,55.0782 2.7398,37.5 2.7398,19.9218 15.8863,5.4141 32.8836,3.2727" />
	<path style="stroke:#ffffff;stroke-width:0.8602;stroke-miterlimit:4.0;fill:#ffffff;" d="M 39.941,21.1057 L 22.3376,21.0124 22.3376,52.6067 29.012,52.6067 29.0387,39.3833 39.5291,39.3833 39.5016,34.9446 29.012,34.9446 29.012,26.2443 40.5941,26.2443 39.941,21.1057 Z" />
	<path style="stroke:#ffffff;stroke-width:0.8602;stroke-miterlimit:4.0;fill:#ffffff;" d="M 49.3454,20.8293 L 43.2129,20.8293 43.2129,46.5499 C 43.2129,50.3581 43.631,52.6059 49.2241,52.6059 L 54.4234,52.6059 55.2151,48.1646 50.0035,48.1646 C 49.1383,48.0632 49.3829,47.2774 49.3454,46.291 L 49.3454,20.8293 Z" />
</g>
</svg>
